FINK
CUT[WENN DIE HOFFNUNG NICHT WAER]
REG[Europa, Mitteleuropa, Deutschland]
KEY[F0021  16  F 3/4]
MEL[-5__  1__-5__-3__  -1___
    -3__  -4__-2__-5__  -3__.0_
    -2_-2_  -3__-3__-4#__  -5___
    -6__  -7__-6__-4#_.-5  -5__.0_
    -2_.-2  -2__-3__-4__  -3___
    -3_.-3  -3__-4#__-5__  -4#___.  ^__0__
    -5_.-5  1__-5__-7b__  -6___
    -6_-6_  -5__-2__-4__  -3___.  0___ //] >>
FCT[Moral - Lied, Hoffnung]
